X: 13363
T: Flax In Bloom, The
R: reel
M: 4/4
K: Dmajor
|:A|D2 F/E/D FAdf|gefd edBd|A2 FA dfaf|g/f/e fd edBd|
D2 F/E/D FAdf|g/f/e fd edBd|A2 FA ABdf|afeg fdd:|
|:e|f2 df edce|dcdA BAFA|DFAd Afaf|g/f/e fd edBd|
f/g/f df e/f/e ce|d2 dA BAFA|DFAd Afaf|afeg fdd:|

